app/icons/0423-dribbble.svg

<?xml version="1.0" encoding="UTF-8" standalone="no"?>
<!-- Generated by IcoMoon.io -->

<svg
   xmlns:dc="http://purl.org/dc/elements/1.1/"
   xmlns:cc="http://creativecommons.org/ns#"
   xmlns:rdf="http://www.w3.org/1999/02/22-rdf-syntax-ns#"
   xmlns:svg="http://www.w3.org/2000/svg"
   xmlns="http://www.w3.org/2000/svg"
   xmlns:sodipodi="http://sodipodi.sourceforge.net/DTD/sodipodi-0.dtd"
   xmlns:inkscape="http://www.inkscape.org/namespaces/inkscape"
   version="1.1"
   width="64"
   height="64"
   viewBox="0 0 64 64"
   id="svg4"
   sodipodi:docname="0423-dribbble.svg"
   inkscape:version="0.92.4 (5da689c313, 2019-01-14)">
  <metadata
     id="metadata10">
    <rdf:RDF>
      <cc:Work
         rdf:about="">
        <dc:format>image/svg+xml</dc:format>
        <dc:type
           rdf:resource="http://purl.org/dc/dcmitype/StillImage" />
      </cc:Work>
    </rdf:RDF>
  </metadata>
  <defs
     id="defs8" />
  <sodipodi:namedview
     pagecolor="#ffffff"
     bordercolor="#666666"
     borderopacity="1"
     objecttolerance="10"
     gridtolerance="10"
     guidetolerance="10"
     inkscape:pageopacity="0"
     inkscape:pageshadow="2"
     inkscape:window-width="1627"
     inkscape:window-height="874"
     id="namedview6"
     showgrid="false"
     inkscape:zoom="3.6875"
     inkscape:cx="1.7627119"
     inkscape:cy="32"
     inkscape:window-x="70"
     inkscape:window-y="27"
     inkscape:window-maximized="0"
     inkscape:current-layer="svg4" />
  <rect
     style="fill:#0066cc;fill-opacity:1;stroke:#ffffff;stroke-width:0;stroke-linejoin:bevel;stroke-miterlimit:4;stroke-dasharray:none;stroke-opacity:1"
     id="rect4520"
     width="80.271187"
     height="70.779663"
     x="-7.3220339"
     y="-4.0677967" />
  <path
     d="M32 64c-17.645 0-32-14.355-32-32s14.355-32 32-32c17.645 0 32 14.355 32 32s-14.355 32-32 32zM58.987 36.38c-0.935-0.295-8.46-2.539-17.026-1.169 3.575 9.824 5.030 17.825 5.31 19.488 6.132-4.146 10.497-10.714 11.716-18.319zM42.677 57.202c-0.407-2.398-1.994-10.756-5.831-20.727-0.060 0.020-0.12 0.040-0.18 0.061-15.417 5.372-20.951 16.063-21.443 17.069 4.634 3.614 10.459 5.77 16.777 5.77 3.786 0 7.395-0.774 10.677-2.172zM11.694 50.317c0.619-1.060 8.121-13.48 22.217-18.037 0.356-0.115 0.715-0.223 1.077-0.325-0.686-1.553-1.434-3.107-2.216-4.639-13.65 4.085-26.895 3.914-28.091 3.89-0.008 0.278-0.014 0.556-0.014 0.835 0 7.020 2.661 13.43 7.027 18.276zM5.245 26.444c1.222 0.016 12.484 0.065 25.269-3.33-4.529-8.051-9.413-14.819-10.134-15.807-7.647 3.607-13.363 10.656-15.135 19.138zM25.595 5.469c0.756 1.011 5.72 7.772 10.199 16.001 9.719-3.643 13.834-9.173 14.325-9.873-4.827-4.282-11.174-6.888-18.119-6.888-2.206 0-4.35 0.264-6.405 0.76zM53.158 14.757c-0.576 0.78-5.157 6.651-15.263 10.777 0.636 1.302 1.246 2.626 1.813 3.959 0.201 0.473 0.397 0.943 0.589 1.411 9.095-1.144 18.131 0.689 19.033 0.88-0.060-6.451-2.366-12.376-6.172-17.027z"
     fill="#000000"
     id="path2"
     style="fill:#ffffff;fill-opacity:1" />
</svg>

<?xml version="1.0" encoding="UTF-8" standalone="no"?>
<!-- Generated by IcoMoon.io -->

<svg
   xmlns:dc="http://purl.org/dc/elements/1.1/"
   xmlns:cc="http://creativecommons.org/ns#"
   xmlns:rdf="http://www.w3.org/1999/02/22-rdf-syntax-ns#"
   xmlns:svg="http://www.w3.org/2000/svg"
   xmlns="http://www.w3.org/2000/svg"
   xmlns:sodipodi="http://sodipodi.sourceforge.net/DTD/sodipodi-0.dtd"
   xmlns:inkscape="http://www.inkscape.org/namespaces/inkscape"
   version="1.1"
   width="64"
   height="64"
   viewBox="0 0 64 64"
   id="svg4"
   sodipodi:docname="0423-dribbble.svg"
   inkscape:version="0.92.4 (5da689c313, 2019-01-14)">
  <metadata
     id="metadata10">
    <rdf:RDF>
      <cc:Work
         rdf:about="">
        <dc:format>image/svg+xml</dc:format>
        <dc:type
           rdf:resource="http://purl.org/dc/dcmitype/StillImage" />
      </cc:Work>
    </rdf:RDF>
  </metadata>
  <defs
     id="defs8" />
  <sodipodi:namedview
     pagecolor="#ffffff"
     bordercolor="#666666"
     borderopacity="1"
     objecttolerance="10"
     gridtolerance="10"
     guidetolerance="10"
     inkscape:pageopacity="0"
     inkscape:pageshadow="2"
     inkscape:window-width="2490"
     inkscape:window-height="1376"
     id="namedview6"
     showgrid="false"
     inkscape:zoom="3.6875"
     inkscape:cx="1.7627119"
     inkscape:cy="32"
     inkscape:window-x="70"
     inkscape:window-y="27"
     inkscape:window-maximized="1"
     inkscape:current-layer="svg4" />
  <g
     id="g877">
    <rect
       y="-4.0677967"
       x="-7.3220339"
       height="70.779663"
       width="80.271187"
       id="rect4520"
       style="fill:#0066cc;fill-opacity:1;stroke:#ffffff;stroke-width:0;stroke-linejoin:bevel;stroke-miterlimit:4;stroke-dasharray:none;stroke-opacity:1" />
    <path
       style="fill:#ffffff;fill-opacity:1"
       id="path2"
       d="M 32,64 C 14.355,64 0,49.645 0,32 0,14.355 14.355,0 32,0 49.645,0 64,14.355 64,32 64,49.645 49.645,64 32,64 Z M 58.987,36.38 c -0.935,-0.295 -8.46,-2.539 -17.026,-1.169 3.575,9.824 5.03,17.825 5.31,19.488 C 53.403,50.553 57.768,43.985 58.987,36.38 Z M 42.677,57.202 C 42.27,54.804 40.683,46.446 36.846,36.475 c -0.06,0.02 -0.12,0.04 -0.18,0.061 -15.417,5.372 -20.951,16.063 -21.443,17.069 4.634,3.614 10.459,5.77 16.777,5.77 3.786,0 7.395,-0.774 10.677,-2.172 z M 11.694,50.317 c 0.619,-1.06 8.121,-13.48 22.217,-18.037 0.356,-0.115 0.715,-0.223 1.077,-0.325 -0.686,-1.553 -1.434,-3.107 -2.216,-4.639 -13.65,4.085 -26.895,3.914 -28.091,3.89 -0.008,0.278 -0.014,0.556 -0.014,0.835 0,7.02 2.661,13.43 7.027,18.276 z M 5.245,26.444 C 6.467,26.46 17.729,26.509 30.514,23.114 25.985,15.063 21.101,8.295 20.38,7.307 12.733,10.914 7.017,17.963 5.245,26.445 Z M 25.595,5.469 c 0.756,1.011 5.72,7.772 10.199,16.001 9.719,-3.643 13.834,-9.173 14.325,-9.873 C 45.292,7.315 38.945,4.709 32,4.709 c -2.206,0 -4.35,0.264 -6.405,0.76 z m 27.563,9.288 c -0.576,0.78 -5.157,6.651 -15.263,10.777 0.636,1.302 1.246,2.626 1.813,3.959 0.201,0.473 0.397,0.943 0.589,1.411 9.095,-1.144 18.131,0.689 19.033,0.88 -0.06,-6.451 -2.366,-12.376 -6.172,-17.027 z"
       inkscape:connector-curvature="0" />
  </g>
</svg>
